resources/img/ico_pin.svg

<svg width="23" height="28" viewBox="0 0 23 28" fill="none" xmlns="http://www.w3.org/2000/svg">
    <path d="M11.1383 0C5.07137 0 0.15387 4.91799 0.15387 10.9849C0.15387 14.7284 2.04868 18.0047 4.88707 20.0178C7.47685 21.855 8.04861 22.2933 8.95921 24.0319C9.67966 25.4071 10.8482 27.8206 10.8482 27.8206C10.9031 27.9304 11.0151 28 11.1383 28C11.2611 28 11.374 27.9303 11.4289 27.8206C11.4289 27.8206 12.5975 25.4071 13.3179 24.0319C14.228 22.2933 14.8002 21.855 17.3896 20.0178C20.2284 18.0047 22.1232 14.7284 22.1232 10.9849C22.1231 4.91799 17.2047 0 11.1383 0ZM11.1384 16.9493C7.63845 16.9493 5.17445 15.0503 5.17445 10.9848C5.17445 7.23333 7.63845 5.02133 11.1383 5.02133C14.9447 5.02133 17.1024 7.93333 17.1024 10.9848C17.1024 14.6271 14.6384 16.9493 11.1384 16.9493Z" fill="white"/>
</svg>

<?xml version="1.0" encoding="UTF-8" standalone="no"?><!DOCTYPE svg PUBLIC "-//W3C//DTD SVG 1.1//EN" "http://www.w3.org/Graphics/SVG/1.1/DTD/svg11.dtd"><svg width="100%" height="100%" viewBox="0 0 23 28" version="1.1" xmlns="http://www.w3.org/2000/svg" xmlns:xlink="http://www.w3.org/1999/xlink" xml:space="preserve" xmlns:serif="http://www.serif.com/" style="fill-rule:evenodd;clip-rule:evenodd;stroke-linejoin:round;stroke-miterlimit:2;"><path d="M11.138,0c-6.067,0 -10.984,4.918 -10.984,10.985c0,3.743 1.895,7.02 4.733,9.033c2.59,1.837 3.162,2.275 4.072,4.014c0.721,1.375 1.889,3.789 1.889,3.789c0.055,0.109 0.167,0.179 0.29,0.179c0.123,0 0.236,-0.07 0.291,-0.179c0,0 1.169,-2.414 1.889,-3.789c0.91,-1.739 1.482,-2.177 4.072,-4.014c2.838,-2.013 4.733,-5.29 4.733,-9.033c0,-6.067 -4.918,-10.985 -10.985,-10.985Zm0,16.949c-3.5,0 -5.964,-1.899 -5.964,-5.964c0,-3.752 2.464,-5.964 5.964,-5.964c3.807,0 5.964,2.912 5.964,5.964c0,3.642 -2.464,5.964 -5.964,5.964Z" style="fill:#fff;fill-rule:nonzero;"/></svg>
